assets/post/images/constellation8.svg

<svg xmlns="http://www.w3.org/2000/svg" width="1195" height="1129" overflow="hidden"><defs><clipPath id="a"><path d="M2896 1605h1195v1129H2896z"/></clipPath></defs><g clip-path="url(#a)" transform="translate(-2896 -1605)"><path fill="#fdefe8" d="M3458 2178h514v467h-514z"/><path fill="none" stroke="#000" stroke-miterlimit="8" stroke-width="9.167" d="M2896.5 2183.5h1189.38m-629.38 550.44V1630.5"/><path fill="#d74514" fill-rule="evenodd" d="M3782 1821.5c0-24.02 19.48-43.5 43.5-43.5s43.5 19.48 43.5 43.5-19.48 43.5-43.5 43.5-43.5-19.48-43.5-43.5"/><text fill="#d74514" font-family="Microsoft YaHei,Microsoft YaHei_MSFontService,sans-serif" font-size="73" font-weight="700" transform="translate(3774.38 1735)">0<tspan x="45.261" y="0">0</tspan></text><path fill-rule="evenodd" d="M4033.5 2242.19h14.26l-.4 1.74c-.9.19-1.55.41-1.94.65-.39.23-.74.59-1.05 1.07q-.465.705-.96 2.22c-.33 1.01-.75 2.66-1.25 4.94l-6.09 27.66c-.31 1.4-.52 2.51-.61 3.33-.1.82-.14 1.57-.14 2.23 0 1.07.26 1.82.8 2.26.53.44 1.43.71 2.69.81l-.39 1.74h-14.26l.39-1.74c.91-.15 1.58-.38 2.03-.7.46-.32.84-.76 1.14-1.34.31-.57.6-1.26.86-2.08s.65-2.41 1.18-4.76l6.06-27.45q.78-3.555.78-5.73 0-1.68-.84-2.34c-.56-.44-1.44-.69-2.65-.77Z"/><text x="4024.16" y="2284.76" fill-opacity="0" font-family="Arial,Arial_MSFontService,sans-serif" font-size="48.655">𝐼</text><path fill-rule="evenodd" d="M3528.77 1647.03c-2.57 0-4.96.91-7.18 2.74s-4.17 4.44-5.85 7.84q-2.505 5.1-3.9 11.19c-.93 4.07-1.39 7.66-1.39 10.77 0 7.34 2.67 11.01 8.02 11.01 3.3 0 6.33-1.54 9.09-4.61q4.14-4.62 6.66-12.78c1.69-5.44 2.54-10.53 2.54-15.26 0-3.54-.66-6.24-1.96-8.11q-1.965-2.79-6.03-2.79m.39-3.14c4.59 0 8.12 1.33 10.61 3.99q3.72 3.99 3.72 11.55c0 3.33-.52 7.05-1.57 11.16-1.04 4.11-2.48 7.74-4.31 10.89-1.83 3.14-3.95 5.68-6.36 7.61q-3.615 2.88-7.86 3.99.825 2.595 1.53 4.29c.48 1.13.93 2.05 1.37 2.75s.88 1.22 1.3 1.57q.645.51 1.29.69c.43.12.92.18 1.5.18.9 0 1.81-.26 2.74-.78.93-.53 1.96-1.43 3.1-2.71l1.85 1.99c-1.9 2.07-3.67 3.53-5.31 4.39-1.64.85-3.32 1.28-5.06 1.28q-2.955 0-4.83-1.32t-3.24-4.2c-.92-1.93-1.8-4.45-2.66-7.56-4.3-.24-7.58-1.66-9.83-4.28-2.26-2.61-3.39-6.3-3.39-11.05 0-3.56.6-7.59 1.8-12.08s2.93-8.46 5.2-11.89 4.98-6.04 8.13-7.81 6.58-2.65 10.28-2.65"/><text x="3503.75" y="1698.88" fill-opacity="0" font-family="Arial,Arial_MSFontService,sans-serif" font-size="62.841">𝑄</text><path fill="#d74514" fill-rule="evenodd" d="M3090 1821.5c0-24.02 19.7-43.5 44-43.5s44 19.48 44 43.5-19.7 43.5-44 43.5-44-19.48-44-43.5"/><text fill="#d74514" font-family="Microsoft YaHei,Microsoft YaHei_MSFontService,sans-serif" font-size="73" font-weight="700" transform="translate(3083.15 1735)">01</text><path fill="#d74514" fill-rule="evenodd" d="M3782 2514c0-24.3 19.48-44 43.5-44s43.5 19.7 43.5 44-19.48 44-43.5 44-43.5-19.7-43.5-44"/><text fill="#d74514" font-family="Microsoft YaHei,Microsoft YaHei_MSFontService,sans-serif" font-size="73" font-weight="700" transform="translate(3774.38 2427)">10</text><path fill="#d74514" fill-rule="evenodd" d="M3090 2514c0-24.3 19.7-44 44-44s44 19.7 44 44-19.7 44-44 44-44-19.7-44-44"/><text fill="#d74514" font-family="Microsoft YaHei,Microsoft YaHei_MSFontService,sans-serif" font-size="73" font-weight="700" transform="translate(3083.15 2427)">1<tspan x="45.26" y="0">1</tspan></text></g></svg>

<svg width="1195" height="1129" xmlns="http://www.w3.org/2000/svg" xmlns:xlink="http://www.w3.org/1999/xlink" overflow="hidden"><defs><clipPath id="clip0"><rect x="2896" y="1605" width="1195" height="1129"/></clipPath></defs><g clip-path="url(#clip0)" transform="translate(-2896 -1605)"><rect x="3458" y="2178" width="514" height="467" fill="#FDEFE8"/><path d="M2896.5 2183.5 4085.88 2183.5" stroke="#000000" stroke-width="9.16667" stroke-miterlimit="8" fill="none" fill-rule="evenodd"/><path d="M0 0 0.000360892 1103.44" stroke="#000000" stroke-width="9.16667" stroke-miterlimit="8" fill="none" fill-rule="evenodd" transform="matrix(1 0 0 -1 3456.5 2733.94)"/><path d="M3782 1821.5C3782 1797.48 3801.48 1778 3825.5 1778 3849.52 1778 3869 1797.48 3869 1821.5 3869 1845.52 3849.52 1865 3825.5 1865 3801.48 1865 3782 1845.52 3782 1821.5Z" fill="#D74514" fill-rule="evenodd"/><text fill="#D74514" font-family="Microsoft YaHei,Microsoft YaHei_MSFontService,sans-serif" font-weight="700" font-size="73" transform="matrix(1 0 0 1 3774.38 1735)">0<tspan font-size="73" x="45.2605" y="0">0</tspan></text><path d="M4033.5 2242.19 4047.76 2242.19 4047.36 2243.93C4046.46 2244.12 4045.81 2244.34 4045.42 2244.58 4045.03 2244.81 4044.68 2245.17 4044.37 2245.65 4044.06 2246.12 4043.74 2246.86 4043.41 2247.87 4043.08 2248.88 4042.66 2250.53 4042.16 2252.81L4036.07 2280.47C4035.76 2281.87 4035.55 2282.98 4035.46 2283.8 4035.36 2284.62 4035.32 2285.37 4035.32 2286.03 4035.32 2287.1 4035.58 2287.85 4036.12 2288.29 4036.65 2288.73 4037.55 2289 4038.81 2289.1L4038.42 2290.84 4024.16 2290.84 4024.55 2289.1C4025.46 2288.95 4026.13 2288.72 4026.58 2288.4 4027.04 2288.08 4027.42 2287.64 4027.72 2287.06 4028.03 2286.49 4028.32 2285.8 4028.58 2284.98 4028.84 2284.16 4029.23 2282.57 4029.76 2280.22L4035.82 2252.77C4036.34 2250.4 4036.6 2248.49 4036.6 2247.04 4036.6 2245.92 4036.32 2245.14 4035.76 2244.7 4035.2 2244.26 4034.32 2244.01 4033.11 2243.93Z" fill-rule="evenodd"/><text fill="#000000" fill-opacity="0" font-family="Arial,Arial_MSFontService,sans-serif" font-size="48.6548" x="4024.16" y="2284.76">𝐼</text><path d="M3528.77 1647.03C3526.2 1647.03 3523.81 1647.94 3521.59 1649.77 3519.37 1651.6 3517.42 1654.21 3515.74 1657.61 3514.07 1661.01 3512.77 1664.74 3511.84 1668.8 3510.91 1672.87 3510.45 1676.46 3510.45 1679.57 3510.45 1686.91 3513.12 1690.58 3518.47 1690.58 3521.77 1690.58 3524.8 1689.04 3527.56 1685.97 3530.32 1682.89 3532.54 1678.63 3534.22 1673.19 3535.91 1667.75 3536.76 1662.66 3536.76 1657.93 3536.76 1654.39 3536.1 1651.69 3534.8 1649.82 3533.49 1647.96 3531.48 1647.03 3528.77 1647.03ZM3529.16 1643.89C3533.75 1643.89 3537.28 1645.22 3539.77 1647.88 3542.25 1650.54 3543.49 1654.39 3543.49 1659.43 3543.49 1662.76 3542.97 1666.48 3541.92 1670.59 3540.88 1674.7 3539.44 1678.33 3537.61 1681.48 3535.78 1684.62 3533.66 1687.16 3531.25 1689.09 3528.84 1691.01 3526.22 1692.34 3523.39 1693.08 3523.94 1694.81 3524.45 1696.24 3524.92 1697.37 3525.4 1698.5 3525.85 1699.42 3526.29 1700.12 3526.73 1700.82 3527.17 1701.34 3527.59 1701.69 3528.02 1702.03 3528.45 1702.26 3528.88 1702.38 3529.31 1702.5 3529.8 1702.56 3530.38 1702.56 3531.28 1702.56 3532.19 1702.3 3533.12 1701.78 3534.05 1701.25 3535.08 1700.35 3536.22 1699.07L3538.07 1701.06C3536.17 1703.13 3534.4 1704.59 3532.76 1705.45 3531.12 1706.3 3529.44 1706.73 3527.7 1706.73 3525.73 1706.73 3524.12 1706.29 3522.87 1705.41 3521.62 1704.53 3520.54 1703.13 3519.63 1701.21 3518.71 1699.28 3517.83 1696.76 3516.97 1693.65 3512.67 1693.41 3509.39 1691.99 3507.14 1689.37 3504.88 1686.76 3503.75 1683.07 3503.75 1678.32 3503.75 1674.76 3504.35 1670.73 3505.55 1666.24 3506.75 1661.75 3508.48 1657.78 3510.75 1654.35 3513.02 1650.92 3515.73 1648.31 3518.88 1646.54 3522.03 1644.77 3525.46 1643.89 3529.16 1643.89Z" fill-rule="evenodd"/><text fill="#000000" fill-opacity="0" font-family="Arial,Arial_MSFontService,sans-serif" font-size="62.8413" x="3503.75" y="1698.88">𝑄</text><path d="M3090 1821.5C3090 1797.48 3109.7 1778 3134 1778 3158.3 1778 3178 1797.48 3178 1821.5 3178 1845.52 3158.3 1865 3134 1865 3109.7 1865 3090 1845.52 3090 1821.5Z" fill="#D74514" fill-rule="evenodd"/><text fill="#D74514" font-family="Microsoft YaHei,Microsoft YaHei_MSFontService,sans-serif" font-weight="700" font-size="73" transform="matrix(1 0 0 1 3083.15 1735)">01</text><path d="M3782 2514C3782 2489.7 3801.48 2470 3825.5 2470 3849.52 2470 3869 2489.7 3869 2514 3869 2538.3 3849.52 2558 3825.5 2558 3801.48 2558 3782 2538.3 3782 2514Z" fill="#D74514" fill-rule="evenodd"/><text fill="#D74514" font-family="Microsoft YaHei,Microsoft YaHei_MSFontService,sans-serif" font-weight="700" font-size="73" transform="matrix(1 0 0 1 3774.38 2427)">10</text><path d="M3090 2514C3090 2489.7 3109.7 2470 3134 2470 3158.3 2470 3178 2489.7 3178 2514 3178 2538.3 3158.3 2558 3134 2558 3109.7 2558 3090 2538.3 3090 2514Z" fill="#D74514" fill-rule="evenodd"/><text fill="#D74514" font-family="Microsoft YaHei,Microsoft YaHei_MSFontService,sans-serif" font-weight="700" font-size="73" transform="matrix(1 0 0 1 3083.15 2427)">1<tspan font-size="73" x="45.2603" y="0">1</tspan></text></g></svg>
